X: 1
T: Pretty Pepper
C: Jerry Holland
H: \251 fiddlesticksmusic.com, SOCAN
R: reel
Z: 2010 John Chambers <jc:trillian.mit.edu>
F: http://www.thesession.org/tunes/display/3589
F: http://www.jerryholland.com/tunes/prettypepper.jpg
M: C|
L: 1/8
K: Gdor
g \
| "Gm"dcAc d2fd | "F"cAGA cFFg | "Gm"dcAc d2fd | "F"cFAc "Gm"dGGg |
| "Gm"dcAc d2fd | "F"cAGA cFFf | "Gm"dcAc defd | "F"cFAc "Gm"dGG :|
|: a |\
| "Gm"bagf g2dg | "F"fdcf AFcA | "Gm"bagf "Bb"g2dg | "Dm"fdcA "Gm"BGGa |
| "Gm"bagf g2dg | "F"fdcB AFcA | "Bb"bgaf  "F"gefd | "Dm"cFAc "Gm"BGG :|

%%sep 1 1 500

